X:1
T:Cross of Jesus (Doane), 76.76.76
T:Cross of Jesus (Doane), 76.76.76
T:William Howard Doane, 1875
T:Public Domain Courtesy of the Cyber Hymnal™
C:William Howard Doane, 1875
Z:Public Domain
Z:Courtesy of the Cyber Hymnal™
%%score ( 1 2 ) ( 3 4 )
L:1/8
Q:1/4=115
M:4/4
K:G
V:1 treble 
V:2 treble 
V:3 bass 
V:4 bass 
V:1
 D2 | [DG]2 [DG]2 [DB]2 (AG) | [EG]4 [CE]2 [CE]2 | [B,D]2 [B,D]2 [DG]2 [DG]2 | [DA]6 [Fc]2 | %5
 [GB]2 [GB]2 [Gd]2 ([GB][FA]) | [EG]4 !fermata![Gc]2 (BA) | [DG]2 [DG]2 [GB]2 [DA]2 | [DG]6 (DE) | %9
 [DF]2 [DG]2 [DA]2 [DB]2 | [Fc]4 [Ac]2 [FA]2 | [DG]2 [DA]2 [GB]2 [G^c]2 | [Fd]6 [Fc]2 | %13
 [GB]2 [GB]2 [Gd]2 ([GB][FA]) | [EG]4 !fermata![Gc]2 (BA) | [DG]2 [DG]2 [GB]2 [DA]2 | [DG]6 |] %17
V:2
 D2 | x6 D2 | x8 | x8 | x8 | x8 | x6 E2 | x8 | x6 D2 | x8 | x8 | x8 | x8 | x8 | x6 E2 | x8 | x6 |] %17
V:3
 [G,B,]2 | [G,B,]2 [G,B,]2 [G,,G,]2 [B,,G,]2 | [C,G,]4 [C,G,]2 [C,G,]2 | %3
 [G,,G,]2 [G,,G,]2 [B,,G,]2 [B,,G,]2 | [D,F,]6 [D,D]2 | [G,D]2 [G,D]2 [G,B,]2 ([G,D][D,C]) | %6
 [E,B,]4 !fermata![C,E]2 (DC) | [D,B,]2 [D,B,]2 [D,D]2 [D,C]2 | [G,B,]6 (F,G,) | %9
 A,2 [B,,G,]2 [A,,F,]2 [G,,G,]2 | [D,A,]4 [D,D]2 (DC) | [G,B,]2 [F,D]2 [G,D]2 [E,A,]2 | %12
 [D,A,]6 [D,D]2 | [G,D]2 [G,D]2 [G,B,]2 ([G,D][D,C]) | [E,B,]4 !fermata![C,E]2 (DC) | %15
 [D,B,]2 [D,B,]2 [D,D]2 [D,C]2 | [G,B,]6 |] %17
V:4
 x2 | x8 | x8 | x8 | x8 | x8 | x6 C,2 | x8 | x6 D,2 | (D,C,) x6 | x6 D,2 | x8 | x8 | x8 | x6 C,2 | %15
 x8 | x6 |] %17

